public/assets/images/section3-illo.svg

<svg enable-background="new 0 0 100 392" viewBox="0 0 100 392" xmlns="http://www.w3.org/2000/svg"><path d="m53.6 301.3c-14.9 0-27-12.1-27-27v-225.3c0-14.8 12.1-27 27-27 14.8 0 27 12.1 27 27v225.3c0 14.9-12.1 27-27 27z" fill="#f8f6e8"/><path d="m53.6 355c5.9 0 10.7-4.8 10.7-10.7v-44.3c0-5.9-4.8-10.7-10.7-10.7-5.9 0-10.7 4.8-10.7 10.7v44.2c0 5.9 4.8 10.8 10.7 10.8z" fill="#f8f6e8"/><path d="m53.6 22.3c-2.7 0-5.3.4-7.7 1.1 12.5 2.3 22 13.4 22 26.5v225.3c0 12.2-8.2 22.5-19.3 25.9 1.6.3 3.3.5 5 .5 14.8 0 27-12.1 27-27v-225.4c0-14.8-12.1-26.9-27-26.9z" fill="#f8eec8" opacity=".65"/><path d="m53.6 355c5.9 0 10.7-4.8 10.7-10.7v-30.9h-21.4v30.9c0 5.8 4.8 10.7 10.7 10.7z" fill="#c0d5d0"/><path d="m60.4 313.1v27.4c0 5.9-4.8 10.7-10.7 10.7-1.6 0-3.1-.4-4.4-1 1.9 2.7 5.1 4.5 8.7 4.5 5.9 0 10.7-4.8 10.7-10.7v-30.9z" fill="#c0d5d0" opacity=".59"/><g fill="#f3c74a"><path d="m55.3 313.4h-3.3v-265c0-.9.8-1.7 1.7-1.7.9 0 1.7.8 1.7 1.7v265z"/><g opacity=".57"><path d="m72.3 57h-34.6c-.7 0-1.3-.6-1.3-1.3 0-.7.6-1.3 1.3-1.3h34.7c.7 0 1.3.6 1.3 1.3 0 .7-.6 1.3-1.4 1.3z"/><path d="m72.3 86.3h-34.6c-.7 0-1.3-.6-1.3-1.3 0-.7.6-1.3 1.3-1.3h34.7c.7 0 1.3.6 1.3 1.3 0 .7-.6 1.3-1.4 1.3z"/><path d="m71.7 115.6h-34.7c-.7 0-1.3-.6-1.3-1.3 0-.7.6-1.3 1.3-1.3h34.7c.7 0 1.3.6 1.3 1.3 0 .7-.6 1.3-1.3 1.3z"/><path d="m71.7 144.8h-34.7c-.7 0-1.3-.6-1.3-1.3 0-.7.6-1.3 1.3-1.3h34.7c.7 0 1.3.6 1.3 1.3 0 .7-.6 1.3-1.3 1.3z"/><path d="m71.7 174.1h-34.7c-.7 0-1.3-.6-1.3-1.3 0-.7.6-1.3 1.3-1.3h34.7c.7 0 1.3.6 1.3 1.3 0 .7-.6 1.3-1.3 1.3z"/><path d="m71.7 203.4h-34.7c-.7 0-1.3-.6-1.3-1.3 0-.7.6-1.3 1.3-1.3h34.7c.7 0 1.3.6 1.3 1.3 0 .7-.6 1.3-1.3 1.3z"/><path d="m71.7 232.7h-34.7c-.7 0-1.3-.6-1.3-1.3 0-.7.6-1.3 1.3-1.3h34.7c.7 0 1.3.6 1.3 1.3 0 .7-.6 1.3-1.3 1.3z"/></g><g opacity=".57"><path d="m63.3 72h-17.6c-.7 0-1.3-.6-1.3-1.3 0-.7.6-1.3 1.3-1.3h17.6c.7 0 1.3.6 1.3 1.3.1.7-.5 1.3-1.3 1.3z"/><path d="m63.3 101.3h-17.6c-.7 0-1.3-.6-1.3-1.3 0-.7.6-1.3 1.3-1.3h17.6c.7 0 1.3.6 1.3 1.3.1.7-.5 1.3-1.3 1.3z"/><path d="m63 130.6h-17.7c-.7 0-1.3-.6-1.3-1.3 0-.7.6-1.3 1.3-1.3h17.7c.7 0 1.3.6 1.3 1.3 0 .7-.6 1.3-1.3 1.3z"/><path d="m63 159.8h-17.7c-.7 0-1.3-.6-1.3-1.3 0-.7.6-1.3 1.3-1.3h17.7c.7 0 1.3.6 1.3 1.3 0 .7-.6 1.3-1.3 1.3z"/><path d="m63 189.1h-17.7c-.7 0-1.3-.6-1.3-1.3 0-.7.6-1.3 1.3-1.3h17.7c.7 0 1.3.6 1.3 1.3 0 .7-.6 1.3-1.3 1.3z"/><path d="m63 218.4h-17.7c-.7 0-1.3-.6-1.3-1.3 0-.7.6-1.3 1.3-1.3h17.7c.7 0 1.3.6 1.3 1.3 0 .7-.6 1.3-1.3 1.3z"/><path d="m63 247.7h-17.7c-.7 0-1.3-.6-1.3-1.3 0-.7.6-1.3 1.3-1.3h17.7c.7 0 1.3.6 1.3 1.3 0 .7-.6 1.3-1.3 1.3z"/></g></g><path d="m55.3 313.8h-3.3v-176.4c0-.9.8-1.7 1.7-1.7.9 0 1.7.8 1.7 1.7v176.4z" fill="#ea4143"/><path d="m60.2 298.3h4.3v15h-4.3z" fill="#f8eec8"/></svg>

<?xml version="1.0" encoding="utf-8"?>
<!-- Generator: Adobe Illustrator 21.1.0, SVG Export Plug-In . SVG Version: 6.00 Build 0)  -->
<svg version="1.1" id="Layer_1" xmlns="http://www.w3.org/2000/svg" xmlns:xlink="http://www.w3.org/1999/xlink" x="0px" y="0px"
	 viewBox="0 0 100 392" style="enable-background:new 0 0 100 392;" xml:space="preserve">
<style type="text/css">
	.st0{fill:#F8F6E8;}
	.st1{opacity:0.65;}
	.st2{fill:#F8EEC8;}
	.st3{fill:#C0D5D0;}
	.st4{opacity:0.59;}
	.st5{fill:#F3C74A;}
	.st6{opacity:0.57;}
	.st7{fill:#EA4143;}
</style>
<path class="st0" d="M53.6,301.3L53.6,301.3c-14.9,0-27-12.1-27-27V49c0-14.8,12.1-27,27-27h0c14.8,0,27,12.1,27,27v225.3
	C80.6,289.2,68.5,301.3,53.6,301.3z"/>
<path class="st0" d="M53.6,355L53.6,355c5.9,0,10.7-4.8,10.7-10.7V300c0-5.9-4.8-10.7-10.7-10.7h0c-5.9,0-10.7,4.8-10.7,10.7v44.2
	C42.9,350.1,47.7,355,53.6,355z"/>
<g class="st1">
	<path class="st2" d="M53.6,22.3L53.6,22.3c-2.7,0-5.3,0.4-7.7,1.1c12.5,2.3,22,13.4,22,26.5v225.3c0,12.2-8.2,22.5-19.3,25.9
		c1.6,0.3,3.3,0.5,5,0.5h0c14.8,0,27-12.1,27-27V49.2C80.6,34.4,68.5,22.3,53.6,22.3z"/>
</g>
<path class="st3" d="M53.6,355L53.6,355c5.9,0,10.7-4.8,10.7-10.7v-30.9H42.9v30.9C42.9,350.1,47.7,355,53.6,355z"/>
<g class="st4">
	<path class="st3" d="M60.4,313.1v27.4c0,5.9-4.8,10.7-10.7,10.7c-1.6,0-3.1-0.4-4.4-1c1.9,2.7,5.1,4.5,8.7,4.5
		c5.9,0,10.7-4.8,10.7-10.7v-30.9H60.4z"/>
</g>
<path class="st5" d="M55.3,313.4H52v-265c0-0.9,0.8-1.7,1.7-1.7h0c0.9,0,1.7,0.8,1.7,1.7V313.4z"/>
<g class="st6">
	<path class="st5" d="M72.3,57H37.7c-0.7,0-1.3-0.6-1.3-1.3v0c0-0.7,0.6-1.3,1.3-1.3h34.7c0.7,0,1.3,0.6,1.3,1.3v0
		C73.7,56.4,73.1,57,72.3,57z"/>
	<path class="st5" d="M72.3,86.3H37.7c-0.7,0-1.3-0.6-1.3-1.3l0,0c0-0.7,0.6-1.3,1.3-1.3h34.7c0.7,0,1.3,0.6,1.3,1.3l0,0
		C73.7,85.7,73.1,86.3,72.3,86.3z"/>
	<path class="st5" d="M71.7,115.6H37c-0.7,0-1.3-0.6-1.3-1.3l0,0c0-0.7,0.6-1.3,1.3-1.3h34.7c0.7,0,1.3,0.6,1.3,1.3l0,0
		C73,115,72.4,115.6,71.7,115.6z"/>
	<path class="st5" d="M71.7,144.8H37c-0.7,0-1.3-0.6-1.3-1.3l0,0c0-0.7,0.6-1.3,1.3-1.3h34.7c0.7,0,1.3,0.6,1.3,1.3l0,0
		C73,144.2,72.4,144.8,71.7,144.8z"/>
	<path class="st5" d="M71.7,174.1H37c-0.7,0-1.3-0.6-1.3-1.3v0c0-0.7,0.6-1.3,1.3-1.3h34.7c0.7,0,1.3,0.6,1.3,1.3v0
		C73,173.5,72.4,174.1,71.7,174.1z"/>
	<path class="st5" d="M71.7,203.4H37c-0.7,0-1.3-0.6-1.3-1.3l0,0c0-0.7,0.6-1.3,1.3-1.3h34.7c0.7,0,1.3,0.6,1.3,1.3l0,0
		C73,202.8,72.4,203.4,71.7,203.4z"/>
	<path class="st5" d="M71.7,232.7H37c-0.7,0-1.3-0.6-1.3-1.3v0c0-0.7,0.6-1.3,1.3-1.3h34.7c0.7,0,1.3,0.6,1.3,1.3v0
		C73,232.1,72.4,232.7,71.7,232.7z"/>
</g>
<g class="st6">
	<path class="st5" d="M63.3,72H45.7c-0.7,0-1.3-0.6-1.3-1.3v0c0-0.7,0.6-1.3,1.3-1.3h17.6c0.7,0,1.3,0.6,1.3,1.3v0
		C64.7,71.4,64.1,72,63.3,72z"/>
	<path class="st5" d="M63.3,101.3H45.7c-0.7,0-1.3-0.6-1.3-1.3l0,0c0-0.7,0.6-1.3,1.3-1.3h17.6c0.7,0,1.3,0.6,1.3,1.3l0,0
		C64.7,100.7,64.1,101.3,63.3,101.3z"/>
	<path class="st5" d="M63,130.6H45.3c-0.7,0-1.3-0.6-1.3-1.3l0,0c0-0.7,0.6-1.3,1.3-1.3H63c0.7,0,1.3,0.6,1.3,1.3l0,0
		C64.3,130,63.7,130.6,63,130.6z"/>
	<path class="st5" d="M63,159.8H45.3c-0.7,0-1.3-0.6-1.3-1.3l0,0c0-0.7,0.6-1.3,1.3-1.3H63c0.7,0,1.3,0.6,1.3,1.3l0,0
		C64.3,159.2,63.7,159.8,63,159.8z"/>
	<path class="st5" d="M63,189.1H45.3c-0.7,0-1.3-0.6-1.3-1.3v0c0-0.7,0.6-1.3,1.3-1.3H63c0.7,0,1.3,0.6,1.3,1.3v0
		C64.3,188.5,63.7,189.1,63,189.1z"/>
	<path class="st5" d="M63,218.4H45.3c-0.7,0-1.3-0.6-1.3-1.3l0,0c0-0.7,0.6-1.3,1.3-1.3H63c0.7,0,1.3,0.6,1.3,1.3l0,0
		C64.3,217.8,63.7,218.4,63,218.4z"/>
	<path class="st5" d="M63,247.7H45.3c-0.7,0-1.3-0.6-1.3-1.3v0c0-0.7,0.6-1.3,1.3-1.3H63c0.7,0,1.3,0.6,1.3,1.3v0
		C64.3,247.1,63.7,247.7,63,247.7z"/>
</g>
<path class="st7" d="M55.3,313.8H52V137.4c0-0.9,0.8-1.7,1.7-1.7h0c0.9,0,1.7,0.8,1.7,1.7V313.8z"/>
<rect x="60.2" y="298.3" class="st2" width="4.3" height="15"/>
</svg>
